X:11
T:Sári néni, de beteg...
K:F
L:1/4
M:2/4
ag | ad | c/fg/ | 
ag | f/c/f | e/dd/ | 
dc | dG | F/Bc/ | 
dc | B/F/B | A/GG/ | 

